X:106
T:Sea,The. JBs.106
S:Jas.Blackshaw MS, 1837, N.Shropshire
A:North Shropshire
Z:T. Weatherall 2006
M:6/8
L:1/8
Q:3/8=120
N:Some of the rests amy need adjusting to taste!
R:Quickstep
K:C
G|(c3c2)G|(e3e2)c|d3G2z|c2zz2E|d2Bc2A|B2GA2F|G2B dcA|G2zz2|!
z2GG2A|B2B BAB|c2cc2A^F|D2D EFG|F3z2z|z2zz2B|B2BA2B|d3d zB|c3cdc|!
Bzz2G|GFE D2D|EDCB2,B|cBA GFE|A3B3|E3zz2|c3c2c|c3zz2|G3G2G|!
G2zz2G|c2c cBA|G2E EFG|A2A AGF|E2CC2E|c3B3|A3B3|!
G3GFG|A2zAG|G3GAB|c3cdc|f3fefe2zz2c|dGz2z2|deczzz|!
d2d BAB|c2zz2c|dGzz2d|efzz2c|def GAB|c3c2|]

